X:1
T:An Mälzel
T:An Mälzel
T:Ludwig van Beethoven
C:Ludwig van Beethoven
%%score [ 1 2 3 4 ]
L:1/8
Q:1/8=72
M:2/4
K:Bb
V:1 treble nm="Stimme 1"
V:2 treble nm="Stimme 2"
V:3 treble nm="Stimme 3"
V:4 treble nm="Stimme 4"
V:1
 f/ f/ f/ f/ f/ f/ f/ =e/4 g/4 | f/ =e/4 g/4 f/ e/4 g/4 (f>d) | %2
w: ta ta ta ta ta ta ta ta ta|ta ta ta ta ta ta ta, _|
 (d/4c/4) (c/4d/4) !courtesy!_e/ (c/4d/4) B/ B/ z | d/ d/ d/ d/ d/ d/ d/ d/ | d2- d B/ B/4 B/4 | %5
w: lie- * ber, _ lie- ber _ Mäl- zel,|ta ta ta ta ta ta ta ta|ta, _ le- ben Sie|
 A3/2 f/ d2 | B/ B/ B/ B/ B/ B/ B/ B/ | B2- B F/ F/4 F/4 | F/ c A/4 A/4 B/ d/4 c/4 B/ A/4 G/4 |: %9
w: wohl, sehr wohl.|ta ta ta ta ta ta ta ta|ta, _ Ban- ner der|Zeit, Ban- ner der Zeit, ta ta ta ta ta|
 F/ F/ F/ F/ F/ F/ F/ F/ | F3/4 F/4 B3/4 B/4 d3/4 d/4 f | f3/4 f/4 F/ F/ B,/ B/4 c/4 d/ d/4 e/4 | %12
w: ta ta ta ta ta ta ta ta|gro- sser, gro- sser Me- tro- nom,|gro- sser Me- tro- nom. ta ta ta ta ta|
 f/ f/ f/ f/ f/ f/ f/ =e/4 g/4 | f/ =e/4 g/4 f/ e/4 g/4 (f>d) | %14
w: ta ta ta ta ta ta ta ta ta|ta ta ta ta ta ta ta, _|
 (d/4c/4) (c/4d/4) !courtesy!_e/ (c/4d/4) B/ B/ z | d/ d/ d/ d/ d/ d/ d/ d/ | d2- d B/ B/4 B/4 | %17
w: lie- * ber, _ lie- ber _ Mäl- zel,|ta ta ta ta ta ta ta ta|ta, _ le- ben Sie|
 A3/2 f/ d2 | B/ B/ B/ B/ B/ B/ B/ B/ | B2- B F/ F/4 F/4 | F/ c A/4 A/4 B/ d/4 c/4 B/ A/4 G/4 :| %21
w: wohl, sehr wohl.|ta ta ta ta ta ta ta ta|ta, _ Ban- ner der|Zeit, Ban- ner der Zeit, ta ta ta ta ta|
V:2
 z4 | z4 | z4 | f/ f/ f/ f/ f/ f/ f/ =e/4 g/4 | f/ =e/4 g/4 f/ e/4 g/4 (f>d) | %5
w: |||ta ta ta ta ta ta ta ta ta|ta ta ta ta ta ta ta, _|
 (d/4c/4) (c/4d/4) !courtesy!_e/ (c/4d/4) B/ B/ z | d/ d/ d/ d/ d/ d/ d/ d/ | d2- d B/ B/4 B/4 | %8
w: lie- * ber, _ lie- ber _ Mäl- zel,|ta ta ta ta ta ta ta ta|ta, _ le- ben Sie|
 A3/2 f/ d2 |: B/ B/ B/ B/ B/ B/ B/ B/ | B2- B F/ F/4 F/4 | F/ c A/4 A/4 B/ d/4 c/4 B/ A/4 G/4 | %12
w: wohl, sehr wohl.|ta ta ta ta ta ta ta ta|ta, _ Ban- ner der|Zeit, Ban- ner der Zeit, ta ta ta ta ta|
 F/ F/ F/ F/ F/ F/ F/ F/ | F3/4 F/4 B3/4 B/4 d3/4 d/4 f | f3/4 f/4 F/ F/ B,/ B/4 c/4 d/ d/4 e/4 | %15
w: ta ta ta ta ta ta ta ta|gro- sser, gro- sser Me- tro- nom,|gro- sser Me- tro- nom. ta ta ta ta ta|
 f/ f/ f/ f/ f/ f/ f/ =e/4 g/4 | f/ =e/4 g/4 f/ e/4 g/4 (f>d) | %17
w: ta ta ta ta ta ta ta ta ta|ta ta ta ta ta ta ta, _|
 (d/4c/4) (c/4d/4) !courtesy!_e/ (c/4d/4) B/ B/ z | d/ d/ d/ d/ d/ d/ d/ d/ | d2- d B/ B/4 B/4 | %20
w: lie- * ber, _ lie- ber _ Mäl- zel,|ta ta ta ta ta ta ta ta|ta, _ le- ben Sie|
 A3/2 f/ d2 :| %21
w: wohl, sehr wohl.|
V:3
 z4 | z4 | z4 | z4 | z4 | z4 | f/ f/ f/ f/ f/ f/ f/ =e/4 g/4 | f/ =e/4 g/4 f/ e/4 g/4 (f>d) | %8
w: ||||||ta ta ta ta ta ta ta ta ta|ta ta ta ta ta ta ta, _|
 (d/4c/4) (c/4d/4) !courtesy!_e/ (c/4d/4) B/ B/ z |: d/ d/ d/ d/ d/ d/ d/ d/ | d2- d B/ B/4 B/4 | %11
w: lie- * ber, _ lie- ber _ Mäl- zel,|ta ta ta ta ta ta ta ta|ta, _ le- ben Sie|
 A3/2 f/ d2 | B/ B/ B/ B/ B/ B/ B/ B/ | B2- B F/ F/4 F/4 | F/ c A/4 A/4 B/ d/4 c/4 B/ A/4 G/4 | %15
w: wohl, sehr wohl.|ta ta ta ta ta ta ta ta|ta, _ Ban- ner der|Zeit, Ban- ner der Zeit, ta ta ta ta ta|
 F/ F/ F/ F/ F/ F/ F/ F/ | F3/4 F/4 B3/4 B/4 d3/4 d/4 f | f3/4 f/4 F/ F/ B,/ B/4 c/4 d/ d/4 e/4 | %18
w: ta ta ta ta ta ta ta ta|gro- sser, gro- sser Me- tro- nom,|gro- sser Me- tro- nom. ta ta ta ta ta|
 f/ f/ f/ f/ f/ f/ f/ =e/4 g/4 | f/ =e/4 g/4 f/ e/4 g/4 (f>d) | %20
w: ta ta ta ta ta ta ta ta ta|ta ta ta ta ta ta ta, _|
 (d/4c/4) (c/4d/4) !courtesy!_e/ (c/4d/4) B/ B/ z :| %21
w: lie- * ber, _ lie- ber _ Mäl- zel,|
V:4
 z4 | z4 | z4 | z4 | z4 | z4 | z4 | z4 | z4 |: f/ f/ f/ f/ f/ f/ f/ =e/4 g/4 | %10
w: |||||||||ta ta ta ta ta ta ta ta ta|
 f/ =e/4 g/4 f/ e/4 g/4 (f>d) | (d/4c/4) (c/4d/4) !courtesy!_e/ (c/4d/4) B/ B/ z | %12
w: ta ta ta ta ta ta ta, *|lie- * ber, _ lie- ber _ Mäl- zel,|
 d/ d/ d/ d/ d/ d/ d/ d/ | d2- d B/ B/4 B/4 | A3/2 f/ d2 | B/ B/ B/ B/ B/ B/ B/ B/ | %16
w: ta ta ta ta ta ta ta ta|ta, _ le- ben Sie|wohl, sehr wohl.|ta ta ta ta ta ta ta ta|
 B2- B F/ F/4 F/4 | F/ c A/4 A/4 B/ d/4 c/4 B/ A/4 G/4 | F/ F/ F/ F/ F/ F/ F/ F/ | %19
w: ta, _ Ban- ner der|Zeit, Ban- ner der Zeit, ta ta ta ta ta|ta ta ta ta ta ta ta ta|
 F3/4 F/4 B3/4 B/4 d3/4 d/4 f | f3/4 f/4 F/ F/ B,/ B/4 c/4 d/ d/4 e/4 :| %21
w: gro- sser, gro- sser Me- tro- nom,|gro- sser Me- tro- nom. ta ta ta ta ta|

